public/assets/socials/github.svg

<svg xmlns="http://www.w3.org/2000/svg" xmlns:xlink="http://www.w3.org/1999/xlink" viewBox="0,0,256,256" width="64px" height="64px" fill-rule="nonzero"><g fill="#ffffff" fill-rule="nonzero" stroke="none" stroke-width="1" stroke-linecap="butt" stroke-linejoin="miter" stroke-miterlimit="10" stroke-dasharray="" stroke-dashoffset="0" font-family="none" font-weight="none" font-size="none" text-anchor="none" style="mix-blend-mode: normal"><g transform="scale(4,4)"><path d="M32,6c-14.359,0 -26,11.641 -26,26c0,12.277 8.512,22.56 19.955,25.286c-0.592,-0.141 -1.179,-0.299 -1.755,-0.479v-5.957c0,0 -0.975,0.325 -2.275,0.325c-3.637,0 -5.148,-3.245 -5.525,-4.875c-0.229,-0.993 -0.827,-1.934 -1.469,-2.509c-0.767,-0.684 -1.126,-0.686 -1.131,-0.92c-0.01,-0.491 0.658,-0.471 0.975,-0.471c1.625,0 2.857,1.729 3.429,2.623c1.417,2.207 2.938,2.577 3.721,2.577c0.975,0 1.817,-0.146 2.397,-0.426c0.268,-1.888 1.108,-3.57 2.478,-4.774c-6.097,-1.219 -10.4,-4.716 -10.4,-10.4c0,-2.928 1.175,-5.619 3.133,-7.792c-0.2,-0.567 -0.533,-1.714 -0.533,-3.583c0,-1.235 0.086,-2.751 0.65,-4.225c0,0 3.708,0.026 7.205,3.338c1.614,-0.47 3.341,-0.738 5.145,-0.738c1.804,0 3.531,0.268 5.145,0.738c3.497,-3.312 7.205,-3.338 7.205,-3.338c0.567,1.474 0.65,2.99 0.65,4.225c0,2.015 -0.268,3.19 -0.432,3.697c1.898,2.153 3.032,4.802 3.032,7.678c0,5.684 -4.303,9.181 -10.4,10.4c1.628,1.43 2.6,3.513 2.6,5.85v8.557c-0.576,0.181 -1.162,0.338 -1.755,0.479c11.443,-2.726 19.955,-13.009 19.955,-25.286c0,-14.359 -11.641,-26 -26,-26zM33.813,57.93c-0.599,0.042 -1.203,0.07 -1.813,0.07c0.61,0 1.213,-0.029 1.813,-0.07zM37.786,57.346c-1.164,0.265 -2.357,0.451 -3.575,0.554c1.218,-0.103 2.411,-0.29 3.575,-0.554zM32,58c-0.61,0 -1.214,-0.028 -1.813,-0.07c0.6,0.041 1.203,0.07 1.813,0.07zM29.788,57.9c-1.217,-0.103 -2.411,-0.289 -3.574,-0.554c1.164,0.264 2.357,0.451 3.574,0.554z"></path></g></g></svg>

<svg xmlns="http://www.w3.org/2000/svg"  viewBox="0 0 64 64" width="64px" height="64px"><path d="M32 6C17.641 6 6 17.641 6 32c0 12.277 8.512 22.56 19.955 25.286-.592-.141-1.179-.299-1.755-.479V50.85c0 0-.975.325-2.275.325-3.637 0-5.148-3.245-5.525-4.875-.229-.993-.827-1.934-1.469-2.509-.767-.684-1.126-.686-1.131-.92-.01-.491.658-.471.975-.471 1.625 0 2.857 1.729 3.429 2.623 1.417 2.207 2.938 2.577 3.721 2.577.975 0 1.817-.146 2.397-.426.268-1.888 1.108-3.57 2.478-4.774-6.097-1.219-10.4-4.716-10.4-10.4 0-2.928 1.175-5.619 3.133-7.792C19.333 23.641 19 22.494 19 20.625c0-1.235.086-2.751.65-4.225 0 0 3.708.026 7.205 3.338C28.469 19.268 30.196 19 32 19s3.531.268 5.145.738c3.497-3.312 7.205-3.338 7.205-3.338.567 1.474.65 2.99.65 4.225 0 2.015-.268 3.19-.432 3.697C46.466 26.475 47.6 29.124 47.6 32c0 5.684-4.303 9.181-10.4 10.4 1.628 1.43 2.6 3.513 2.6 5.85v8.557c-.576.181-1.162.338-1.755.479C49.488 54.56 58 44.277 58 32 58 17.641 46.359 6 32 6zM33.813 57.93C33.214 57.972 32.61 58 32 58 32.61 58 33.213 57.971 33.813 57.93zM37.786 57.346c-1.164.265-2.357.451-3.575.554C35.429 57.797 36.622 57.61 37.786 57.346zM32 58c-.61 0-1.214-.028-1.813-.07C30.787 57.971 31.39 58 32 58zM29.788 57.9c-1.217-.103-2.411-.289-3.574-.554C27.378 57.61 28.571 57.797 29.788 57.9z"/></svg>
